assets/svgs/pages/nuxt-consulting/fun.svg

<svg viewBox="0 0 84.58 90.23" xmlns="http://www.w3.org/2000/svg"><path d="m47.73 30.87a.71.71 0 0 1 -.32-.07.74.74 0 0 1 -.36-1 5.22 5.22 0 0 1 9.16-.51.75.75 0 1 1 -1.27.78 3.72 3.72 0 0 0 -6.53.37.76.76 0 0 1 -.68.43z" fill="#c4c4c4"/><path d="m74.07 30.87a.76.76 0 0 1 -.68-.43 3.73 3.73 0 0 0 -6.53-.37.75.75 0 1 1 -1.27-.78 5.22 5.22 0 0 1 9.16.51.74.74 0 0 1 -.36 1 .71.71 0 0 1 -.32.07z" fill="#c4c4c4"/><path d="m81 15.73h-40.17a3.64 3.64 0 0 0 -3.63 3.63v27.14c.51.31 1 .64 1.5 1v-28.14a2.13 2.13 0 0 1 2.13-2.13h40.17a2.13 2.13 0 0 1 2.13 2.13v40.12a2.13 2.13 0 0 1 -2.13 2.13h-33c.1.5.19 1 .26 1.5h32.74a3.64 3.64 0 0 0 3.63-3.63v-40.12a3.64 3.64 0 0 0 -3.63-3.63z" fill="#c4c4c4"/><path d="m60.89 53.55a13.62 13.62 0 0 1 -13.11-10 1.28 1.28 0 0 1 .22-1.1 1.33 1.33 0 0 1 1-.51h23.75a1.3 1.3 0 0 1 1 .51 1.25 1.25 0 0 1 .25 1.12 13.62 13.62 0 0 1 -13.11 9.98zm-11.59-10.11a12.11 12.11 0 0 0 23.18 0z" fill="#c4c4c4"/><g fill="#ff7c6c"><circle cx="36.4" cy="62.36" r="1.94"/><circle cx="14.14" cy="62.36" r="1.94"/><path d="m25.35 80.57a14.31 14.31 0 0 1 -12.93-8.28.75.75 0 0 1 1.37-.63 12.73 12.73 0 0 0 23.13 0 .76.76 0 0 1 1-.36.75.75 0 0 1 .37 1 14.31 14.31 0 0 1 -12.94 8.27z"/><path d="m39.26 74a.75.75 0 0 1 -.66-.39 3.68 3.68 0 0 0 -2.71-2.07.75.75 0 0 1 -.68-.81.73.73 0 0 1 .79-.73 5.22 5.22 0 0 1 3.92 2.85.76.76 0 0 1 -.3 1 .8.8 0 0 1 -.36.15z"/><path d="m11.31 74a.8.8 0 0 1 -.31-.1.76.76 0 0 1 -.3-1 5.16 5.16 0 0 1 3.87-2.9.75.75 0 0 1 .11 1.49 3.75 3.75 0 0 0 -2.68 2.1.76.76 0 0 1 -.69.41z"/><path d="m25.36 42.49a24 24 0 0 0 -3.83.31l1.76 1a2.32 2.32 0 0 1 -.05.27c.7-.06 1.41-.1 2.12-.1a22.37 22.37 0 1 1 -22.36 22.39 22.17 22.17 0 0 1 1.24-7.36c-.41.07-.81.15-1.23.21l-.08-1a23.87 23.87 0 1 0 22.43-15.72z"/><path d="m2.33 60.07-2.33-28.49a1.15 1.15 0 0 1 .52-1 1.12 1.12 0 0 1 1.16 0l22.4 12.89v.48c-.08.05-1.63 13.13-20.96 16.05zm-.77-27.89 2.13 26.16c15.58-2.6 18.31-11.89 18.77-14.13z"/><path d="m2.53 54.08a.76.76 0 0 1 -.62-.33.74.74 0 0 1 .2-1c9.06-6.2 10-14.88 10-15a.77.77 0 0 1 .82-.68.75.75 0 0 1 .67.82c0 .38-1 9.44-10.66 16a.73.73 0 0 1 -.41.19z"/></g><path d="m66.66 51.8a.69.69 0 0 1 -.49-.18 8.33 8.33 0 0 0 -10.83 0 .74.74 0 0 1 -1.06-.08.76.76 0 0 1 .08-1.06 9.83 9.83 0 0 1 12.78 0 .75.75 0 0 1 .09 1.06.76.76 0 0 1 -.57.26z" fill="#c4c4c4"/><path d="m60.87 8a.75.75 0 0 1 -.75-.75v-6.5a.75.75 0 0 1 1.5 0v6.5a.76.76 0 0 1 -.75.75z" fill="#c4c4c4"/><path d="m67.07 9.34a.71.71 0 0 1 -.53-.22.74.74 0 0 1 0-1.06l4.22-4.22a.75.75 0 0 1 1.06 1.06l-4.22 4.22a.74.74 0 0 1 -.53.22z" fill="#c4c4c4"/><path d="m54.84 9.34a.73.73 0 0 1 -.53-.22l-4.11-4.12a.75.75 0 0 1 0-1 .77.77 0 0 1 1.07 0l4.1 4.1a.75.75 0 0 1 0 1.06.74.74 0 0 1 -.53.18z" fill="#c4c4c4"/></svg>

<svg id="Layer_1" data-name="Layer 1" xmlns="http://www.w3.org/2000/svg" viewBox="0 0 84.58 90.23"><defs><style>.cls-1{fill:#c4c4c4;}.cls-2{fill:#ff7c6c;}</style></defs><path class="cls-1" d="M47.73,30.87a.71.71,0,0,1-.32-.07.74.74,0,0,1-.36-1,5.22,5.22,0,0,1,9.16-.51.75.75,0,1,1-1.27.78,3.72,3.72,0,0,0-6.53.37A.76.76,0,0,1,47.73,30.87Z"/><path class="cls-1" d="M74.07,30.87a.76.76,0,0,1-.68-.43,3.73,3.73,0,0,0-6.53-.37.75.75,0,1,1-1.27-.78,5.22,5.22,0,0,1,9.16.51.74.74,0,0,1-.36,1A.71.71,0,0,1,74.07,30.87Z"/><path class="cls-1" d="M81,15.73H40.83a3.64,3.64,0,0,0-3.63,3.63V46.5c.51.31,1,.64,1.5,1V19.36a2.13,2.13,0,0,1,2.13-2.13H81a2.13,2.13,0,0,1,2.13,2.13V59.48A2.13,2.13,0,0,1,81,61.61H48c.1.5.19,1,.26,1.5H81a3.64,3.64,0,0,0,3.63-3.63V19.36A3.64,3.64,0,0,0,81,15.73Z"/><path class="cls-1" d="M60.89,53.55a13.62,13.62,0,0,1-13.11-10A1.28,1.28,0,0,1,48,42.45a1.33,1.33,0,0,1,1-.51H72.75a1.3,1.3,0,0,1,1,.51A1.25,1.25,0,0,1,74,43.57,13.62,13.62,0,0,1,60.89,53.55ZM49.3,43.44a12.11,12.11,0,0,0,23.18,0Zm23.45,0h0Z"/><circle class="cls-2" cx="36.4" cy="62.36" r="1.94"/><circle class="cls-2" cx="14.14" cy="62.36" r="1.94"/><path class="cls-2" d="M25.35,80.57a14.31,14.31,0,0,1-12.93-8.28.75.75,0,0,1,1.37-.63,12.73,12.73,0,0,0,23.13,0,.76.76,0,0,1,1-.36.75.75,0,0,1,.37,1A14.31,14.31,0,0,1,25.35,80.57Z"/><path class="cls-2" d="M39.26,74a.75.75,0,0,1-.66-.39,3.68,3.68,0,0,0-2.71-2.07.75.75,0,0,1-.68-.81A.73.73,0,0,1,36,70a5.22,5.22,0,0,1,3.92,2.85.76.76,0,0,1-.3,1A.8.8,0,0,1,39.26,74Z"/><path class="cls-2" d="M11.31,74A.8.8,0,0,1,11,73.9a.76.76,0,0,1-.3-1A5.16,5.16,0,0,1,14.57,70a.75.75,0,0,1,.11,1.49A3.75,3.75,0,0,0,12,73.59.76.76,0,0,1,11.31,74Z"/><path class="cls-2" d="M25.36,42.49a24,24,0,0,0-3.83.31l1.76,1a2.32,2.32,0,0,1-.05.27c.7-.06,1.41-.1,2.12-.1A22.37,22.37,0,1,1,3,66.36,22.17,22.17,0,0,1,4.24,59c-.41.07-.81.15-1.23.21l-.08-1A23.87,23.87,0,1,0,25.36,42.49Z"/><path class="cls-2" d="M2.33,60.07,0,31.58a1.15,1.15,0,0,1,.52-1,1.12,1.12,0,0,1,1.16,0l22.4,12.89,0,.48C24,44,22.45,57.08,3.12,60ZM1.56,32.18,3.69,58.34C19.27,55.74,22,46.45,22.46,44.21Z"/><path class="cls-2" d="M2.53,54.08a.76.76,0,0,1-.62-.33.74.74,0,0,1,.2-1c9.06-6.2,10-14.88,10-15a.77.77,0,0,1,.82-.68.75.75,0,0,1,.67.82c0,.38-1,9.44-10.66,16A.73.73,0,0,1,2.53,54.08Z"/><path class="cls-1" d="M66.66,51.8a.69.69,0,0,1-.49-.18,8.33,8.33,0,0,0-10.83,0,.74.74,0,0,1-1.06-.08.76.76,0,0,1,.08-1.06,9.83,9.83,0,0,1,12.78,0,.75.75,0,0,1,.09,1.06A.76.76,0,0,1,66.66,51.8Z"/><path class="cls-1" d="M60.87,8a.75.75,0,0,1-.75-.75V.75a.75.75,0,0,1,1.5,0v6.5A.76.76,0,0,1,60.87,8Z"/><path class="cls-1" d="M67.07,9.34a.71.71,0,0,1-.53-.22.74.74,0,0,1,0-1.06l4.22-4.22A.75.75,0,0,1,71.82,4.9L67.6,9.12A.74.74,0,0,1,67.07,9.34Z"/><path class="cls-1" d="M54.84,9.34a.73.73,0,0,1-.53-.22L50.2,5A.75.75,0,0,1,50.2,4a.77.77,0,0,1,1.07,0l4.1,4.1a.75.75,0,0,1,0,1.06A.74.74,0,0,1,54.84,9.34Z"/></svg>
